Front-end/assets/images/icons/magic.svg

<svg width="48" height="48" viewBox="0 0 48 48" fill="none" xmlns="http://www.w3.org/2000/svg">
<path fill-rule="evenodd" clip-rule="evenodd" d="M17.2573 13.2918L15.7848 14.0659C14.8036 14.5818 14.1584 14.1242 14.3475 13.0216L14.6287 11.382L13.4374 10.2208C12.6436 9.44696 12.8794 8.69188 13.9864 8.53102L15.6327 8.2918L16.369 6.8C16.8596 5.80589 17.6506 5.79685 18.1457 6.8L18.8819 8.2918L20.5282 8.53102C21.6253 8.69043 21.8783 9.43992 21.0773 10.2208L19.886 11.382L20.1672 13.0216C20.3546 14.1142 19.72 14.5865 18.7298 14.0659L17.2573 13.2918ZM35 17L32.0755 18.5375C31.0937 19.0537 30.4501 18.5839 30.6373 17.4926L31.1958 14.2361L28.8298 11.9298C28.0355 11.1555 28.2834 10.3983 29.3791 10.2391L32.6489 9.76393L34.1112 6.80104C34.6021 5.80635 35.3989 5.80814 35.8889 6.80104L37.3512 9.76393L40.6209 10.2391C41.7186 10.3986 41.9631 11.1569 41.1703 11.9298L38.8043 14.2361L39.3628 17.4926C39.5503 18.5859 38.9046 19.0528 37.9246 18.5375L35 17ZM25.9201 18.124L30.1632 22.3671C30.9441 23.148 30.9409 24.4174 30.1692 25.1891L13.1862 42.1721C12.4086 42.9497 11.1507 42.9526 10.3643 42.1661L6.12107 37.923C5.34017 37.1421 5.34345 35.8727 6.11515 35.101L23.0981 18.118C23.8757 17.3404 25.1336 17.3375 25.9201 18.124ZM35.7848 33.0659L37.2573 32.2918L38.7298 33.0659C39.72 33.5865 40.3546 33.1142 40.1672 32.0216L39.886 30.382L41.0773 29.2208C41.8783 28.4399 41.6253 27.6904 40.5282 27.531L38.8819 27.2918L38.1457 25.8C37.6506 24.7969 36.8596 24.8059 36.369 25.8L35.6327 27.2918L33.9864 27.531C32.8794 27.6919 32.6436 28.447 33.4374 29.2208L34.6287 30.382L34.3475 32.0216C34.1584 33.1242 34.8036 33.5818 35.7848 33.0659ZM10.3662 36.5196L20.8764 26.0082L22.2829 27.4149L11.7696 37.9314L10.3662 36.5196Z" fill="black"/>
</svg>

<svg width="48" height="48" fill="none" xmlns="http://www.w3.org/2000/svg"><path fill-rule="evenodd" clip-rule="evenodd" d="M17.257 13.292l-1.472.774c-.981.516-1.627.058-1.438-1.044l.282-1.64-1.192-1.161c-.793-.774-.558-1.53.55-1.69l1.646-.24.736-1.491c.49-.994 1.282-1.003 1.777 0l.736 1.492 1.646.239c1.097.16 1.35.909.55 1.69l-1.192 1.161.281 1.64c.188 1.092-.447 1.564-1.437 1.044l-1.473-.774zM35 17l-2.925 1.538c-.981.516-1.625.046-1.438-1.045l.559-3.257-2.366-2.306c-.794-.774-.547-1.532.55-1.69l3.269-.476L34.11 6.8c.491-.995 1.288-.993 1.778 0l1.462 2.963 3.27.475c1.098.16 1.342.918.55 1.69l-2.367 2.307.559 3.257c.187 1.093-.458 1.56-1.438 1.045L35 17zm-9.08 1.124l4.243 4.243a2 2 0 01.006 2.822L13.186 42.172a1.99 1.99 0 01-2.822-.006l-4.243-4.243a2 2 0 01-.006-2.822l16.983-16.983a1.99 1.99 0 012.822.006zm9.865 14.942l1.472-.774 1.473.774c.99.52 1.625.048 1.437-1.044l-.281-1.64 1.191-1.161c.801-.781.548-1.53-.549-1.69l-1.646-.24-.736-1.491c-.495-1.003-1.286-.994-1.777 0l-.736 1.492-1.647.239c-1.107.16-1.342.916-.549 1.69l1.192 1.161-.282 1.64c-.189 1.102.457 1.56 1.438 1.044zM10.366 36.52l10.51-10.512 1.407 1.407L11.77 37.93l-1.404-1.411z" fill="#000"/></svg>
